X:1
T: The Cashmere Shawl
P:Version in Kerr's 4th
R:Reel
Q: 232
K:Am
M:4/4
L:1/8
|:A2 AB AG ED|EG AB c2 BG|Ac BG ED Aa|ge dB c2 BG|
A2 AB AG ED|EG AB c2 BG|Ac BG ED Aa|ge dB cB c2|
ec gc ec cg|ec ge d2 cd|ec gc ec cg|af ge d2 cd|
ec gc ec cg|ec ge d2 cd|ec gc ec cg|ge dB cB c2:|
